X:0867
T:Fairy King.
M:C
L:1/8
Q:1/2=104
I: :: :|
Z:Jack Campin * www.campin.me.uk * 2009
K:G
G2GA B2BG|ABcd e2ef|gBBc B2AG|   EAFD    G2G2:|
bgdg b2ag|afdf a2gf|geGg fdBf|(3(gab) Bd e2ef |
gGGA B2AG|ABcd e2eg|gbge dcBA|   EAFD    G2G2|]

